logos/matomo-icon.svg

<?xml version="1.0" encoding="UTF-8"?>
<svg width="256px" height="145px" viewBox="0 0 256 145" version="1.1" xmlns="http://www.w3.org/2000/svg" xmlns:xlink="http://www.w3.org/1999/xlink" preserveAspectRatio="xMidYMid">
    <title>Matomo</title>
    <defs>
        <path d="M105.42629,70.8874508 L105.460673,70.8655709 L104.798028,69.8559742 C104.698006,69.7028155 104.597984,69.5434054 104.494835,69.3964982 L58.9348246,0 L0,43.9096481 L43.0782158,110.214842 C43.2626315,110.496154 43.43767,110.780591 43.6283369,111.061904 L43.8565115,111.41198 L43.881517,111.396351 C50.5579847,120.867182 61.5604015,127.068545 74.0256409,127.068545 C94.3988668,127.068545 110.914996,110.555541 110.914996,90.1791894 C110.914996,83.0963836 108.886425,76.5043099 105.42629,70.8874508" id="path-1"></path>
        <path d="M64.5485578,19.3292471 C64.5485578,-1.04397945 48.0324297,-17.5601085 27.6592028,-17.5601085 C7.28597594,-17.5601085 -9.23015315,-1.04397945 -9.23015315,19.3292471 C-9.23015315,26.8183927 -6.98590989,33.7761714 -3.15069154,39.5930746 C-3.15381761,39.5930746 -3.15381761,39.5930746 -3.15381761,39.5899488 L-3.17257198,39.5930746 L-31.1787258,-7.10542736e-15 L-31.2193596,-7.10542736e-15 C-37.7176627,-10.5241875 -49.3202116,-17.5601085 -62.5950034,-17.5601085 C-75.8697952,-17.5601085 -87.4723446,-10.5241875 -93.9706475,-7.10542736e-15 L-94.0081558,-7.10542736e-15 L-138.617958,69.5246513 C-131.98525,59.7256232 -120.770286,53.2898341 -108.048741,53.2898341 C-94.6582986,53.2898341 -82.9713557,60.4476569 -76.5074354,71.1218773 L-76.4605501,71.1218773 L-47.3103951,112.043368 L-47.2635097,112.043368 C-40.5464088,121.142243 -29.7784176,127.068545 -17.600742,127.068545 C-5.41994031,127.068545 5.34805086,121.142243 12.0651513,112.043368 L12.1151623,112.043368 L12.4121023,111.583893 C13.1716446,110.514908 13.884301,109.417791 14.528192,108.270664 L58.2034138,40.0150423 C58.2034138,40.0150423 58.2034138,40.0150423 58.2034138,40.018168 C62.2042935,34.1168713 64.5485578,26.9965568 64.5485578,19.3292471 M2.37239685,46.1413884 C2.58494313,46.3445581 2.80686661,46.5383506 3.02566502,46.7352689 C2.80686661,46.5383506 2.5880692,46.3445581 2.37239685,46.1413884 M5.65124197,48.8857414 C5.89504589,49.0670313 6.13259768,49.2545725 6.37952666,49.4296109 C6.13259768,49.2545725 5.89504589,49.0670313 5.65124197,48.8857414 M13.7467712,53.4836267 C14.0530884,53.6117798 14.3750339,53.7118019 14.6876022,53.830578 C14.3750339,53.7118019 14.0530884,53.6117798 13.7467712,53.4836267 M17.7163933,54.8245463 C18.1539891,54.9495738 18.5978371,55.0589728 19.041684,55.1621205 C18.5978371,55.0620985 18.1539891,54.9495738 17.7163933,54.8245463 M22.0267152,55.7466239 C22.4549339,55.8122633 22.8800274,55.8904055 23.3144982,55.9435422 C22.8800274,55.8904055 22.4580599,55.8122633 22.0267152,55.7466239 M51.9176581,47.0728431 C52.2458547,46.7852799 52.5709262,46.4914653 52.8897467,46.1913994 C52.5709262,46.4914653 52.2489808,46.7852799 51.9176581,47.0728431 M31.9570225,55.9497936 C32.3946183,55.8997826 32.825963,55.815389 33.2604338,55.7528753 C32.825963,55.815389 32.3977434,55.8997826 31.9570225,55.9497936 M36.1548192,55.196503 C36.6236726,55.087104 37.0925251,54.9652022 37.5551274,54.8370491 C37.0925251,54.9652022 36.6267977,55.087104 36.1548192,55.196503 M40.3244853,53.939977 C40.7183222,53.7961954 41.1215353,53.6649165 41.5091212,53.5055065 C41.1215353,53.6649165 40.7214483,53.7961954 40.3244853,53.939977 M48.691949,49.6140264 C49.0045183,49.3983541 49.3014583,49.1576761 49.6077755,48.929501 C49.3014583,49.1576761 49.0045183,49.3952284 48.691949,49.6140264 M54.9495742,44.0878122 C55.2090065,43.8033747 55.4778149,43.5251885 55.7278699,43.231374 C55.4778149,43.5251885 55.2090065,43.8033747 54.9495742,44.0878122" id="path-3"></path>
        <filter x="-3.4%" y="-3.5%" width="106.9%" height="109.7%" filterUnits="objectBoundingBox" id="filter-4">
            <feOffset dx="0" dy="2" in="SourceAlpha" result="shadowOffsetOuter1"></feOffset>
            <feGaussianBlur stdDeviation="2" in="shadowOffsetOuter1" result="shadowBlurOuter1"></feGaussianBlur>
            <feColorMatrix values="0 0 0 0 0   0 0 0 0 0   0 0 0 0 0  0 0 0 0.5 0" type="matrix" in="shadowBlurOuter1"></feColorMatrix>
        </filter>
    </defs>
    <g>
        <path d="M250.511293,88.4475592 L250.545676,88.4256794 L249.883031,87.4160826 C249.783009,87.2629239 249.682987,87.1035139 249.57984,86.9566066 L204.019829,17.5601085 L145.085004,61.4697565 L188.163219,127.77495 C188.347635,128.056263 188.522673,128.340699 188.71334,128.622012 L188.941516,128.972088 L188.966521,128.95646 C195.642988,138.427291 206.645406,144.628654 219.110644,144.628654 C239.483871,144.628654 256,128.11565 256,107.739298 C256,100.656492 253.971429,94.0644184 250.511293,88.4475592" fill="#95C748"></path>
        <path d="M73.7787111,107.739298 C73.7787111,87.3660716 57.2625821,70.8499426 36.8893556,70.8499426 C16.516129,70.8499426 0,87.3660716 0,107.739298 C0,128.11565 16.516129,144.631779 36.8893556,144.631779 C57.2625821,144.631779 73.7787111,128.112525 73.7787111,107.739298" fill="#35BFC0"></path>
        <path d="M172.744206,0 C193.117433,0 209.633562,16.516129 209.633562,36.8893556 C209.633562,44.5566652 207.289297,51.6769797 203.288418,57.5782764 L203.288418,57.5782764 L203.288418,57.5751508 L159.613196,125.830773 C158.969305,126.9779 158.256648,128.075016 157.497106,129.144002 L157.497106,129.144002 L157.200166,129.603477 L157.150155,129.603477 C150.433054,138.702351 139.665063,144.628654 127.484261,144.628654 C115.306585,144.628654 104.538594,138.702351 97.8214939,129.603477 L97.8214939,129.603477 L97.7746086,129.603477 L68.6244535,88.6819857 L68.5775683,88.6819857 C62.113648,78.0077654 50.426705,70.8499426 37.0362628,70.8499426 C24.3147176,70.8499426 13.0997534,77.2857317 6.46704598,87.0847597 L6.46704598,87.0847597 L51.0768479,17.5601085 L51.1143562,17.5601085 C57.6126589,7.03592097 69.2152083,0 82.4900002,0 C95.764792,0 107.367341,7.03592097 113.865644,17.5601085 L113.865644,17.5601085 L113.906278,17.5601085 L141.912432,57.1531831 L141.931185,57.1500573 C141.931185,57.1531831 141.931185,57.1531831 141.934312,57.1531831 C138.099094,51.3362798 135.854851,44.3785011 135.854851,36.8893556 C135.854851,16.516129 152.37098,0 172.744206,0 Z" fill="#3253A0"></path>
        <path d="M250.511294,88.4475592 L250.545677,88.4256794 L249.883032,87.4160826 C249.78301,87.2629239 249.682988,87.1035139 249.57984,86.9566066 L204.019829,17.5601085 L145.085004,61.4697565 L188.16322,127.77495 C188.347636,128.056263 188.522674,128.340699 188.713341,128.622012 L188.941516,128.972088 L188.966521,128.95646 C195.642989,138.427291 206.645406,144.628654 219.110645,144.628654 C239.483871,144.628654 256,128.11565 256,107.739298 C256,100.656492 253.971429,94.0644184 250.511294,88.4475592" fill="#95C748"></path>
        <g transform="translate(145.085004, 17.560108)">
            <mask id="mask-2" fill="white">
                <use xlink:href="#path-1"></use>
            </mask>
            <g mask="url(#mask-2)" fill="black" fill-opacity="1">
                <use filter="url(#filter-4)" xlink:href="#path-3"></use>
            </g>
        </g>
        <path d="M209.486655,36.8893556 C209.486655,16.516129 192.970526,3.55271368e-14 172.597299,3.55271368e-14 C152.224072,3.55271368e-14 135.707944,16.516129 135.707944,36.8893556 C135.707944,57.2625821 152.224072,73.7787111 172.597299,73.7787111 C192.970526,73.7787111 209.486655,57.2625821 209.486655,36.8893556" fill="#F38334"></path>
        <path d="M172.597299,73.7818367 C159.710092,73.7818367 148.382604,67.1647578 141.787405,57.1531831 L141.765524,57.1531831 L113.759371,17.5601085 L113.718736,17.5601085 C107.220434,7.03904666 95.6178847,0.00312568679 82.3430929,0.00312568679 C69.0683011,0.00312568679 57.4657517,7.03904666 50.9674488,17.5601085 L50.9299407,17.5601085 L6.32326439,87.0847597 C12.952846,77.2888574 24.170936,70.8530683 36.8893556,70.8530683 C50.2797977,70.8530683 61.9698664,78.0077654 68.4337867,88.6819857 L68.4806719,88.6819857 L97.630827,129.603477 L97.6745866,129.603477 C104.394813,138.699225 115.162805,144.631779 127.34048,144.631779 C139.518156,144.631779 150.286147,138.702351 157.003247,129.603477 L157.053258,129.603477 L157.350198,129.140876 C158.109741,128.075016 158.822397,126.9779 159.469414,125.833899 L203.14151,57.5782764 C196.505677,67.3522991 185.303216,73.7818367 172.597299,73.7818367" fill="#3152A0"></path>
    </g>
</svg>

<?xml version="1.0" encoding="UTF-8"?>
<svg width="256" height="145" version="1.1" xmlns="http://www.w3.org/2000/svg" xmlns:xlink="http://www.w3.org/1999/xlink" preserveAspectRatio="xMidYMid">
	<defs>
		<path d="m105.426 70.887.035-.021-.663-1.01c-.1-.153-.2-.313-.303-.46L58.935 0 0 43.91l43.078 66.305c.185.281.36.566.55.847l.229.35.025-.016c6.676 9.471 17.678 15.673 30.144 15.673 20.373 0 36.889-16.513 36.889-36.89 0-7.083-2.029-13.675-5.489-19.292" id="a"/>
		<path d="M64.549 19.33c0-20.374-16.517-36.89-36.89-36.89S-9.23-1.044-9.23 19.33c0 7.488 2.245 14.446 6.08 20.263-.003 0-.003 0-.003-.003l-.019.003L-31.179 0h-.04c-6.499-10.524-18.101-17.56-31.376-17.56-13.275 0-24.877 7.036-31.376 17.56h-.037l-44.61 69.525c6.633-9.8 17.848-16.235 30.57-16.235 13.39 0 25.077 7.158 31.54 17.832h.047l29.15 40.921h.047c6.718 9.1 17.486 15.026 29.663 15.026 12.181 0 22.95-5.927 29.666-15.026h.05l.297-.46a36.949 36.949 0 0 0 2.116-3.312l43.675-68.256v.003A36.747 36.747 0 0 0 64.55 19.33M2.372 46.141c.213.204.435.397.654.594-.22-.197-.438-.39-.654-.594m3.28 2.745c.243.181.48.369.728.544-.247-.175-.485-.363-.729-.544m8.096 4.598c.306.128.628.228.94.347-.312-.12-.634-.22-.94-.347m8.28 2.263c.428.065.853.143 1.287.197-.434-.054-.856-.132-1.287-.197M31.957 55.95c.438-.05.869-.135 1.303-.197-.434.062-.862.147-1.303.197m8.368-2.01c.393-.144.797-.275 1.184-.434-.387.159-.788.29-1.185.434m8.368-4.326c.313-.216.61-.456.916-.684-.307.228-.603.465-.916.684m6.258-5.526c.259-.285.528-.563.778-.857-.25.294-.519.572-.778.857" id="d"/>
		<filter x="-3.4%" y="-3.5%" width="106.9%" height="109.7%" filterUnits="objectBoundingBox" id="c">
			<feOffset dx="0" dy="2" in="SourceAlpha" result="shadowOffsetOuter1"/>
			<feGaussianBlur stdDeviation="2" in="shadowOffsetOuter1" result="shadowBlurOuter1"/>
			<feColorMatrix values="0 0 0 0 0 0 0 0 0 0 0 0 0 0 0 0 0 0 0.5 0" type="matrix" in="shadowBlurOuter1"/>
		</filter>
	</defs>
	<path d="m250.511 88.448.035-.022-.663-1.01c-.1-.153-.2-.312-.303-.46L204.02 17.56l-58.935 43.91 43.078 66.305c.185.281.36.566.55.847l.229.35.025-.016c6.676 9.471 17.678 15.673 30.144 15.673 20.373 0 36.889-16.513 36.889-36.89 0-7.083-2.029-13.675-5.489-19.291" fill="#95C748"/>
	<path d="M73.779 107.74c0-20.374-16.516-36.89-36.89-36.89C16.516 70.85 0 87.366 0 107.74c0 20.376 16.516 36.892 36.89 36.892 20.373 0 36.889-16.52 36.889-36.893" fill="#35BFC0"/>
	<path d="M172.744 0c20.373 0 36.89 16.516 36.89 36.89a36.747 36.747 0 0 1-6.346 20.688v-.003l-43.675 68.256a36.949 36.949 0 0 1-2.116 3.313l-.297.46h-.05c-6.717 9.098-17.485 15.025-29.666 15.025-12.177 0-22.945-5.927-29.663-15.026h-.046l-29.15-40.921h-.047C62.114 78.008 50.427 70.85 37.036 70.85c-12.721 0-23.936 6.436-30.569 16.235l44.61-69.525h.037C57.613 7.036 69.215 0 82.49 0c13.275 0 24.877 7.036 31.376 17.56h.04l28.006 39.593.02-.003c0 .003 0 .003.002.003a36.684 36.684 0 0 1-6.08-20.264C135.855 16.516 152.372 0 172.745 0Z" fill="#3253A0"/>
	<path d="m250.511 88.448.035-.022-.663-1.01c-.1-.153-.2-.312-.303-.46L204.02 17.56l-58.935 43.91 43.078 66.305c.185.281.36.566.55.847l.229.35.025-.016c6.676 9.471 17.678 15.673 30.144 15.673 20.373 0 36.889-16.513 36.889-36.89 0-7.083-2.029-13.675-5.489-19.291" fill="#95C748"/>
	<g transform="translate(145.085 17.56)">
		<mask id="b" fill="#fff">
			<use xlink:href="#a"/>
		</mask>
		<g mask="url(#b)" fill="#000" fill-opacity="1">
			<use filter="url(#c)" xlink:href="#d"/>
		</g>
	</g>
	<path d="M209.487 36.89c0-20.374-16.516-36.89-36.89-36.89-20.373 0-36.89 16.516-36.89 36.89 0 20.373 16.517 36.889 36.89 36.889 20.374 0 36.89-16.516 36.89-36.89" fill="#F38334"/>
	<path d="M172.597 73.782c-12.887 0-24.214-6.617-30.81-16.629h-.021L113.759 17.56h-.04C107.22 7.04 95.618.003 82.343.003 69.068.003 57.466 7.04 50.967 17.56h-.037L6.323 87.085c6.63-9.796 17.848-16.232 30.566-16.232 13.39 0 25.08 7.155 31.545 17.829h.047l29.15 40.921h.044c6.72 9.096 17.488 15.029 29.665 15.029 12.178 0 22.946-5.93 29.663-15.029h.05l.297-.462a37.588 37.588 0 0 0 2.12-3.307l43.672-68.256c-6.636 9.774-17.839 16.204-30.545 16.204" fill="#3152A0"/>
</svg>
